Catalina-dark/actions/22/document-cleanup.svg

<svg xmlns="http://www.w3.org/2000/svg" viewBox="0 0 22 22">
  <defs id="defs3051">
    <style type="text/css" id="current-color-scheme">
      .ColorScheme-Text {
        color:#f2f2f2
      }
      </style>
  </defs>
    <path
       style="fill:currentColor;fill-opacity:1;stroke:none"
	 class="ColorScheme-Text"
       d="M 7.6660156 6 L 1.7851562 11.734375 L 1 12.5 L 1.7851562 13.265625 L 7.6660156 19 L 17.945312 19 L 19.5 19 L 20 19 L 20.5 19 C 20.777 19 21 18.777 21 18.5 L 21 6.5 C 21 6.223 20.777 6 20.5 6 L 19.5 6 L 17.945312 6 L 7.6660156 6 z M 10.433594 9.25 L 12.666016 11.427734 L 14.900391 9.25 L 16 10.322266 L 13.767578 12.5 L 16 14.677734 L 14.900391 15.75 L 12.666016 13.572266 L 10.433594 15.75 L 9.3339844 14.677734 L 11.566406 12.5 L 9.3339844 10.322266 L 10.433594 9.25 z "
        />
</svg>

<svg viewBox="0 0 22 22" xmlns="http://www.w3.org/2000/svg">
<defs>
<style id="current-color-scheme" type="text/css">.ColorScheme-Text {
        color:#dedede
      }</style>
</defs>
<path class="ColorScheme-Text" d="m7.666 6-6.666 6.5 6.666 6.5h10.279 1.5547 0.5 0.5c0.277 0 0.5-0.223 0.5-0.5v-12c0-0.277-0.223-0.5-0.5-0.5h-1-1.5547-10.279zm2.7676 3.25 2.2324 2.1777 2.2344-2.1777 1.0996 1.0723-2.2324 2.1777 2.2324 2.1777-1.0996 1.0723-2.2344-2.1777-2.2324 2.1777-1.0996-1.0723 2.2324-2.1777-2.2324-2.1777 1.0996-1.0723z" fill="currentColor"/>
</svg>
